images/spn.svg

<svg height="250" viewBox="0 0 250 250" width="250" xmlns="http://www.w3.org/2000/svg"><path d="m362.501719 185c0 98.032656-79.469063 177.501719-177.501719 177.501719s-177.501719-79.469063-177.501719-177.501719 79.469063-177.501719 177.501719-177.501719 177.501719 79.469063 177.501719 177.501719zm0 0" fill="none" stroke="#6200ea" stroke-width="15" transform="scale(.675676)"/><path d="m182.183594 144.386719c.566406 1.007812 6.9375 12.863281.871094 35.402343-.710938-.152343-1.40625-.371093-2.078126-.648437h-.039062c-2.101562-.730469-4.019531-1.917969-5.617188-3.476563 0 0 .605469 14.007813-8.292968 25.730469-.050782.097657-.109375.1875-.183594.265625l-.042969-.039062c-2.257812-2.332032-3.96875-5.144532-5-8.230469 0 0-4.828125 11.035156-18.289062 21.648437-1.128907.910157-2.292969 1.78125-3.539063 2.652344-6.824218 4.777344-10.628906 7.96875-12.738281 10.066406-.117187.148438-.246094.285157-.382813.414063-.113281.136719-.242187.261719-.375.382813-1.660156 1.816406-1.808593 2.617187-1.808593 2.84375 0-.226563-.152344-1.007813-1.8125-2.84375-.132813-.121094-.257813-.246094-.375-.382813-.136719-.128906-.261719-.265625-.378907-.414063-2.113281-2.089843-5.917968-5.28125-12.742187-10.066406-1.242187-.871094-2.410156-1.742187-3.539063-2.652344-2.433593-1.90625-4.746093-3.957031-6.929687-6.148437-8.746094-8.699219-11.277344-15.261719-11.367187-15.460937-1.03125 3.085937-2.742188 5.902343-5.003907 8.230468l-.039062.042969c-.074219-.082031-.136719-.171875-.1875-.269531-8.90625-11.742188-8.320313-25.769532-8.320313-25.769532-1.589844 1.558594-3.503906 2.746094-5.601562 3.476563h-.035156c-.671876.277344-1.367188.496094-2.074219.648437-6.070313-22.539062.304687-34.414062.867187-35.402343.019532-.019531.035156-.042969.035156-.074219-.019531-.023438-.042968-.050781-.070312-.070312-1.667969-1.210938-27.195312-20.789063-10.476562-71.574219 0 0 4.851562 1.203125 7.652343 5.433593 0 0-.269531-15.078124 19.207031-34.992187 3.441407 2.785156 5.722657 6.761719 6.402344 11.152344 0 0 5.902344-8.980469 17.632813-16.53125 12.648437-8.113281 17.144531-13.589844 17.144531-19.128907 0 0 28.214844 16.890626 34.777344 35.660157 1-7.183594 6.402344-11.152344 6.402344-11.152344 19.476562 19.914063 19.207031 34.992187 19.207031 34.992187 2.800781-4.230468 7.65625-5.433593 7.65625-5.433593 16.714843 50.785156-8.808594 70.363281-10.480469 71.574219-.027344.019531-.050781.046874-.070312.070312.003906.03125.015624.054688.035156.074219zm-57.523438-40.59375c-50.257812-29.445313-61.492187 26.566406-19.832031 28.644531 0 0-5.089844 3.1875-10.816406 3.796875 1.945312.972656 4.164062 1.253906 6.289062.792969-16.550781 17.621094-10.101562 54.101562 24.355469 54.101562s40.902344-36.496094 24.34375-54.101562c2.128906.460937 4.34375.179687 6.292969-.792969-5.726563-.609375-10.820313-3.796875-10.820313-3.796875 41.671875-2.078125 30.4375-58.089844-19.816406-28.644531zm21.074219 11.859375c0 3.371094-1.761719 6.09375-3.929687 6.09375-2.171876 0-3.933594-2.722656-3.933594-6.09375 0-3.367188 1.761718-6.089844 3.933594-6.089844 2.167968 0 3.925781 2.730469 3.925781 6.089844zm-38.214844-6.089844c2.171875 0 3.933594 2.730469 3.933594 6.089844 0 3.363281-1.761719 6.09375-3.933594 6.09375s-3.929687-2.722656-3.929687-6.09375c0-3.367188 1.753906-6.089844 3.925781-6.089844zm23.800781 30.019531c-3.773437-1.199219-4.503906 5.035157-4.503906 5.035157 7.445313.84375 7.820313-3.984376 4.496094-5.035157zm-8.839843 5.035157s-.703125-6.214844-4.476563-5.035157c-3.324218 1.050781-2.949218 5.878907 4.488282 5.011719zm2.175781 23.15625c11.734375.042968 20.367188-5.832032 19.847656-6.761719-.441406-1.0625-9.09375 1.882812-19.847656 1.800781-10.757812.082031-19.410156-2.863281-19.851562-1.800781-.527344.890625 8.109374 6.769531 19.847656 6.71875zm0 0" fill="#6200ea"/></svg>

<svg xmlns="http://www.w3.org/2000/svg" xmlns:xlink="http://www.w3.org/1999/xlink" width="250px" height="250px" viewBox="0 0 250 250" version="1.1">
<g id="surface1">
<path style="fill:none;stroke-width:15;stroke-linecap:butt;stroke-linejoin:miter;stroke:rgb(38.431373%,0%,91.764706%);stroke-opacity:1;stroke-miterlimit:4;" d="M 362.501719 185 C 362.501719 283.032656 283.032656 362.501719 185 362.501719 C 86.967344 362.501719 7.498281 283.032656 7.498281 185 C 7.498281 86.967344 86.967344 7.498281 185 7.498281 C 283.032656 7.498281 362.501719 86.967344 362.501719 185 Z M 362.501719 185 " transform="matrix(0.675676,0,0,0.675676,0,0)"/>
<path style=" stroke:none;fill-rule:nonzero;fill:rgb(38.431373%,0%,91.764706%);fill-opacity:1;" d="M 182.183594 144.386719 C 182.75 145.394531 189.121094 157.25 183.054688 179.789062 C 182.34375 179.636719 181.648438 179.417969 180.976562 179.140625 L 180.9375 179.140625 C 178.835938 178.410156 176.917969 177.222656 175.320312 175.664062 C 175.320312 175.664062 175.925781 189.671875 167.027344 201.394531 C 166.976562 201.492188 166.917969 201.582031 166.84375 201.660156 L 166.800781 201.621094 C 164.542969 199.289062 162.832031 196.476562 161.800781 193.390625 C 161.800781 193.390625 156.972656 204.425781 143.511719 215.039062 C 142.382812 215.949219 141.21875 216.820312 139.972656 217.691406 C 133.148438 222.46875 129.34375 225.660156 127.234375 227.757812 C 127.117188 227.90625 126.988281 228.042969 126.851562 228.171875 C 126.738281 228.308594 126.609375 228.433594 126.476562 228.554688 C 124.816406 230.371094 124.667969 231.171875 124.667969 231.398438 C 124.667969 231.171875 124.515625 230.390625 122.855469 228.554688 C 122.722656 228.433594 122.597656 228.308594 122.480469 228.171875 C 122.34375 228.042969 122.21875 227.90625 122.101562 227.757812 C 119.988281 225.667969 116.183594 222.476562 109.359375 217.691406 C 108.117188 216.820312 106.949219 215.949219 105.820312 215.039062 C 103.386719 213.132812 101.074219 211.082031 98.890625 208.890625 C 90.144531 200.191406 87.613281 193.628906 87.523438 193.429688 C 86.492188 196.515625 84.78125 199.332031 82.519531 201.660156 L 82.480469 201.703125 C 82.40625 201.621094 82.34375 201.53125 82.292969 201.433594 C 73.386719 189.691406 73.972656 175.664062 73.972656 175.664062 C 72.382812 177.222656 70.46875 178.410156 68.371094 179.140625 L 68.335938 179.140625 C 67.664062 179.417969 66.96875 179.636719 66.261719 179.789062 C 60.191406 157.25 66.566406 145.375 67.128906 144.386719 C 67.148438 144.367188 67.164062 144.34375 67.164062 144.3125 C 67.144531 144.289062 67.121094 144.261719 67.09375 144.242188 C 65.425781 143.03125 39.898438 123.453125 56.617188 72.667969 C 56.617188 72.667969 61.46875 73.871094 64.269531 78.101562 C 64.269531 78.101562 64 63.023438 83.476562 43.109375 C 86.917969 45.894531 89.199219 49.871094 89.878906 54.261719 C 89.878906 54.261719 95.78125 45.28125 107.511719 37.730469 C 120.160156 29.617188 124.65625 24.140625 124.65625 18.601562 C 124.65625 18.601562 152.871094 35.492188 159.433594 54.261719 C 160.433594 47.078125 165.835938 43.109375 165.835938 43.109375 C 185.3125 63.023438 185.042969 78.101562 185.042969 78.101562 C 187.84375 73.871094 192.699219 72.667969 192.699219 72.667969 C 209.414062 123.453125 183.890625 143.03125 182.21875 144.242188 C 182.191406 144.261719 182.167969 144.289062 182.148438 144.3125 C 182.152344 144.34375 182.164062 144.367188 182.183594 144.386719 Z M 124.660156 103.792969 C 74.402344 74.347656 63.167969 130.359375 104.828125 132.4375 C 104.828125 132.4375 99.738281 135.625 94.011719 136.234375 C 95.957031 137.207031 98.175781 137.488281 100.300781 137.027344 C 83.75 154.648438 90.199219 191.128906 124.65625 191.128906 C 159.113281 191.128906 165.558594 154.632812 149 137.027344 C 151.128906 137.488281 153.34375 137.207031 155.292969 136.234375 C 149.566406 135.625 144.472656 132.4375 144.472656 132.4375 C 186.144531 130.359375 174.910156 74.347656 124.65625 103.792969 Z M 145.734375 115.652344 C 145.734375 119.023438 143.972656 121.746094 141.804688 121.746094 C 139.632812 121.746094 137.871094 119.023438 137.871094 115.652344 C 137.871094 112.285156 139.632812 109.5625 141.804688 109.5625 C 143.972656 109.5625 145.730469 112.292969 145.730469 115.652344 Z M 107.519531 109.5625 C 109.691406 109.5625 111.453125 112.292969 111.453125 115.652344 C 111.453125 119.015625 109.691406 121.746094 107.519531 121.746094 C 105.347656 121.746094 103.589844 119.023438 103.589844 115.652344 C 103.589844 112.285156 105.34375 109.5625 107.515625 109.5625 Z M 131.320312 139.582031 C 127.546875 138.382812 126.816406 144.617188 126.816406 144.617188 C 134.261719 145.460938 134.636719 140.632812 131.3125 139.582031 Z M 122.480469 144.617188 C 122.480469 144.617188 121.777344 138.402344 118.003906 139.582031 C 114.679688 140.632812 115.054688 145.460938 122.492188 144.59375 Z M 124.65625 167.773438 C 136.390625 167.816406 145.023438 161.941406 144.503906 161.011719 C 144.0625 159.949219 135.410156 162.894531 124.65625 162.8125 C 113.898438 162.894531 105.246094 159.949219 104.804688 161.011719 C 104.277344 161.902344 112.914062 167.78125 124.652344 167.730469 Z M 124.65625 167.773438 "/>
</g>
</svg>
